X:38
T:38t Winter
C:Daniel Reed, 1785
L:1/2
M:4/4
Q:1/2=80
K:FMaj
V:1 clef=treble
%%MIDI program 1 73 % Piccolo
V:2 clef=treble 
%%MIDI program 2 69 % Oboe
V:3 clef=treble-8
%%MIDI program 3 67 % Tenor Sax
V:4 clef=bass
%%MIDI program 4 71 % Bassoon
%
[V:1]
z F|Ac|fc|(A/d/)c|c B|Ad|c(c/f/)|e f|dd|c(c/B/)|(A/c/)=B|c>c|f(e/d/)|cc|c2||
%
[V:2]
z F|FF|F(F/G/)|AA|A G|FF|E(E/F/)|G A|FG|F(F/G/)|AG|A>A|A>G|FG|A2||
w: His hoar-y frost his_ flee-cy snow, De-scend and clothe the_ ground
+: The li-quid streams for_bear to flow, In i-cy fet-ters bound.
%
[V:3]
z F|cc|dc|f(c/A/)|F d|cB|A(G/F/)|c c|(B/d/)(G/B/)|(A/c/)(F/E/)|(F/f/)(e/d/4e/4)|f>c|(d/B/G/4A/4)B/|AG|F2||
%
[V:4]
z F,|F,A,|B,(A,/G,/)|F,F,|F,G,|A,B,|(C/F,/)(E,/D,/)|C,F,|B,G,|A,(A,/G,/)|F,G,|F,>F,|D,E,|F,C,|[F,,2F,2]||


